static/img/kroki/22fcb13fad38b1fdc2a9db14ee2e76cb.svg

<?xml version="1.0" encoding="us-ascii" standalone="no"?><svg xmlns="http://www.w3.org/2000/svg" xmlns:xlink="http://www.w3.org/1999/xlink" contentStyleType="text/css" height="374px" preserveAspectRatio="none" style="width:411px;height:374px;" version="1.1" viewBox="0 0 411 374" width="411px" zoomAndPan="magnify"><defs/><g><!--class azure_network_virtual_wan_vpn_gateway--><g id="elem_azure_network_virtual_wan_vpn_gateway"><rect codeLine="23" fill="#3D176E" height="39.7891" id="azure_network_virtual_wan_vpn_gateway" rx="2.5" ry="2.5" style="stroke:#000D19;stroke-width:0.5;" width="397" x="7" y="328.58"/><ellipse cx="22" cy="348.4745" fill="#ADD1B2" rx="11" ry="11" style="stroke:#181818;stroke-width:1.0;"/><path d="M24.9688,354.1152 Q24.3906,354.412 23.75,354.5527 Q23.1094,354.7089 22.4063,354.7089 Q19.9063,354.7089 18.5781,353.0683 Q17.2656,351.412 17.2656,348.287 Q17.2656,345.162 18.5781,343.5058 Q19.9063,341.8495 22.4063,341.8495 Q23.1094,341.8495 23.75,342.0058 Q24.4063,342.162 24.9688,342.4589 L24.9688,345.1777 Q24.3438,344.5995 23.75,344.3339 Q23.1563,344.0527 22.5313,344.0527 Q21.1875,344.0527 20.5,345.1308 Q19.8125,346.1933 19.8125,348.287 Q19.8125,350.3808 20.5,351.4589 Q21.1875,352.5214 22.5313,352.5214 Q23.1563,352.5214 23.75,352.2558 Q24.3438,351.9745 24.9688,351.3964 L24.9688,354.1152 Z " fill="#000000"/><text fill="#D9B8FF" font-family="Helvetica" font-size="17" lengthAdjust="spacing" textLength="355" x="41" y="354.3598">azure_network_virtual_wan_vpn_gateway</text></g><!--class gateway--><g id="elem_gateway"><rect codeLine="26" fill="#3D176E" height="39.7891" id="gateway" rx="2.5" ry="2.5" style="stroke:#000D19;stroke-width:0.5;" width="114" x="53.5" y="167.79"/><ellipse cx="68.5" cy="187.6845" fill="#ADD1B2" rx="11" ry="11" style="stroke:#181818;stroke-width:1.0;"/><path d="M71.4688,193.3252 Q70.8906,193.622 70.25,193.7627 Q69.6094,193.9189 68.9063,193.9189 Q66.4063,193.9189 65.0781,192.2783 Q63.7656,190.622 63.7656,187.497 Q63.7656,184.372 65.0781,182.7158 Q66.4063,181.0595 68.9063,181.0595 Q69.6094,181.0595 70.25,181.2158 Q70.9063,181.372 71.4688,181.6689 L71.4688,184.3877 Q70.8438,183.8095 70.25,183.5439 Q69.6563,183.2627 69.0313,183.2627 Q67.6875,183.2627 67,184.3408 Q66.3125,185.4033 66.3125,187.497 Q66.3125,189.5908 67,190.6689 Q67.6875,191.7314 69.0313,191.7314 Q69.6563,191.7314 70.25,191.4658 Q70.8438,191.1845 71.4688,190.6064 L71.4688,193.3252 Z " fill="#000000"/><text fill="#D9B8FF" font-family="Helvetica" font-size="17" lengthAdjust="spacing" textLength="72" x="87.5" y="193.5698">gateway</text></g><!--class microsoft_resource--><g id="elem_microsoft_resource"><rect codeLine="29" fill="#3D176E" height="39.7891" id="microsoft_resource" rx="2.5" ry="2.5" style="stroke:#000D19;stroke-width:0.5;" width="200" x="202.5" y="167.79"/><ellipse cx="217.5" cy="187.6845" fill="#ADD1B2" rx="11" ry="11" style="stroke:#181818;stroke-width:1.0;"/><path d="M220.4688,193.3252 Q219.8906,193.622 219.25,193.7627 Q218.6094,193.9189 217.9063,193.9189 Q215.4063,193.9189 214.0781,192.2783 Q212.7656,190.622 212.7656,187.497 Q212.7656,184.372 214.0781,182.7158 Q215.4063,181.0595 217.9063,181.0595 Q218.6094,181.0595 219.25,181.2158 Q219.9063,181.372 220.4688,181.6689 L220.4688,184.3877 Q219.8438,183.8095 219.25,183.5439 Q218.6563,183.2627 218.0313,183.2627 Q216.6875,183.2627 216,184.3408 Q215.3125,185.4033 215.3125,187.497 Q215.3125,189.5908 216,190.6689 Q216.6875,191.7314 218.0313,191.7314 Q218.6563,191.7314 219.25,191.4658 Q219.8438,191.1845 220.4688,190.6064 L220.4688,193.3252 Z " fill="#000000"/><text fill="#D9B8FF" font-family="Helvetica" font-size="17" lengthAdjust="spacing" textLength="158" x="236.5" y="193.5698">microsoft_resource</text></g><!--class resource--><g id="elem_resource"><rect codeLine="32" fill="#3D176E" height="39.7891" id="resource" rx="2.5" ry="2.5" style="stroke:#000D19;stroke-width:0.5;" width="113" x="149" y="7"/><ellipse cx="164" cy="26.8945" fill="#ADD1B2" rx="11" ry="11" style="stroke:#181818;stroke-width:1.0;"/><path d="M166.9688,32.5352 Q166.3906,32.832 165.75,32.9727 Q165.1094,33.1289 164.4063,33.1289 Q161.9063,33.1289 160.5781,31.4883 Q159.2656,29.832 159.2656,26.707 Q159.2656,23.582 160.5781,21.9258 Q161.9063,20.2695 164.4063,20.2695 Q165.1094,20.2695 165.75,20.4258 Q166.4063,20.582 166.9688,20.8789 L166.9688,23.5977 Q166.3438,23.0195 165.75,22.7539 Q165.1563,22.4727 164.5313,22.4727 Q163.1875,22.4727 162.5,23.5508 Q161.8125,24.6133 161.8125,26.707 Q161.8125,28.8008 162.5,29.8789 Q163.1875,30.9414 164.5313,30.9414 Q165.1563,30.9414 165.75,30.6758 Q166.3438,30.3945 166.9688,29.8164 L166.9688,32.5352 Z " fill="#000000"/><text fill="#D9B8FF" font-family="Helvetica" font-size="17" lengthAdjust="spacing" textLength="71" x="183" y="32.7798">resource</text></g><!--reverse link gateway to azure_network_virtual_wan_vpn_gateway--><g id="link_gateway_azure_network_virtual_wan_vpn_gateway"><path codeLine="35" d="M131.2016,223.2865 C149.4616,253.8065 175.72,297.69 194,328.25 " fill="none" id="gateway-backto-azure_network_virtual_wan_vpn_gateway" style="stroke:#FFAF37;stroke-width:2.0;"/><polygon fill="none" points="121.96,207.84,126.0527,226.367,136.3504,220.2059,121.96,207.84" style="stroke:#FFAF37;stroke-width:2.0;"/></g><!--reverse link microsoft_resource to azure_network_virtual_wan_vpn_gateway--><g id="link_microsoft_resource_azure_network_virtual_wan_vpn_gateway"><path codeLine="36" d="M281.418,223.2016 C262.778,253.7216 235.91,297.69 217.24,328.25 " fill="none" id="microsoft_resource-backto-azure_network_virtual_wan_vpn_gateway" style="stroke:#FFAF37;stroke-width:2.0;"/><polygon fill="none" points="290.8,207.84,276.2975,220.0742,286.5385,226.3289,290.8,207.84" style="stroke:#FFAF37;stroke-width:2.0;"/></g><!--reverse link resource to gateway--><g id="link_resource_gateway"><path codeLine="37" d="M184.7984,62.4965 C166.5384,93.0165 140.28,136.9 122,167.46 " fill="none" id="resource-backto-gateway" style="stroke:#FFAF37;stroke-width:2.0;"/><polygon fill="none" points="194.04,47.05,179.6496,59.4159,189.9473,65.577,194.04,47.05" style="stroke:#FFAF37;stroke-width:2.0;"/></g><!--reverse link resource to microsoft_resource--><g id="link_resource_microsoft_resource"><path codeLine="38" d="M226.582,62.4116 C245.222,92.9316 272.09,136.9 290.76,167.46 " fill="none" id="resource-backto-microsoft_resource" style="stroke:#FFAF37;stroke-width:2.0;"/><polygon fill="none" points="217.2,47.05,221.4615,65.5389,231.7025,59.2842,217.2,47.05" style="stroke:#FFAF37;stroke-width:2.0;"/></g><!--SRC=[bP11Jy9048Nl_HMRS2O1YGA95oGnUY56l3T3TnOsRNUQsIaDgFzT4J1BMq2lxtqpxysih4Q5UI4RbME-GFQHJwqhW25N4sQgffGHguunO0R3klb8Jgu2CyXHFM6sHh49r8ctbKrIXzwhcy1wW2HTCfLExzSBW_FV5Ze9g6a6taz4s2vAmQ2C7Yz6njJ9-jBEGFU7TzZ0Y3No0UdrUhe_hYDNeoxU_KlCxHPLFtpQZ0GRDHiHFzJ5bZiYADauzEYVxVW2MbktLBU1zhhln0xvH9-lG5EremraFepnWemacmAdZQjmFD9cs0e_duEZPFSw1TkICNOe5N4QhorB2LbSWOlNXOkN85Z1Hhr7qUTXe4NARSBaoKZCwAda14FtL3kEttzqkzs_fKSj-_ypNXiw8pT3eYy0]--></g></svg>

<svg xmlns="http://www.w3.org/2000/svg" width="411" height="374" viewBox="0 0 411 374"><rect width="397" height="39.789" x="7" y="328.58" fill="#3D176E" rx="2.5" ry="2.5" style="stroke:#000d19;stroke-width:.5"/><circle cx="22" cy="348.474" r="11" fill="#ADD1B2" style="stroke:#181818;stroke-width:1"/><path d="M24.969 354.115q-.578.297-1.219.438-.64.156-1.344.156-2.5 0-3.828-1.64-1.312-1.657-1.312-4.782t1.312-4.781q1.328-1.656 3.828-1.656.703 0 1.344.156.656.156 1.219.453v2.719q-.625-.579-1.219-.844-.594-.281-1.219-.281-1.343 0-2.031 1.078-.687 1.062-.687 3.156t.687 3.172q.688 1.062 2.031 1.062.625 0 1.219-.265.594-.281 1.219-.86z"/><text x="41" y="354.36" fill="#D9B8FF" font-family="Helvetica" font-size="17" textLength="355">azure_network_virtual_wan_vpn_gateway</text><rect width="114" height="39.789" x="53.5" y="167.79" fill="#3D176E" rx="2.5" ry="2.5" style="stroke:#000d19;stroke-width:.5"/><circle cx="68.5" cy="187.685" r="11" fill="#ADD1B2" style="stroke:#181818;stroke-width:1"/><path d="M71.469 193.325q-.578.297-1.219.438-.64.156-1.344.156-2.5 0-3.828-1.64-1.312-1.657-1.312-4.782t1.312-4.781q1.328-1.656 3.828-1.656.703 0 1.344.156.656.156 1.219.453v2.719q-.625-.578-1.219-.844-.594-.281-1.219-.281-1.344 0-2.031 1.078-.687 1.062-.687 3.156t.687 3.172q.688 1.062 2.031 1.062.625 0 1.219-.265.594-.281 1.219-.86z"/><text x="87.5" y="193.57" fill="#D9B8FF" font-family="Helvetica" font-size="17" textLength="72">gateway</text><rect width="200" height="39.789" x="202.5" y="167.79" fill="#3D176E" rx="2.5" ry="2.5" style="stroke:#000d19;stroke-width:.5"/><circle cx="217.5" cy="187.685" r="11" fill="#ADD1B2" style="stroke:#181818;stroke-width:1"/><path d="M220.469 193.325q-.578.297-1.219.438-.64.156-1.344.156-2.5 0-3.828-1.64-1.312-1.657-1.312-4.782t1.312-4.781q1.328-1.656 3.828-1.656.703 0 1.344.156.656.156 1.219.453v2.719q-.625-.578-1.219-.844-.594-.281-1.219-.281-1.344 0-2.031 1.078-.687 1.062-.687 3.156t.687 3.172q.688 1.062 2.031 1.062.625 0 1.219-.265.594-.281 1.219-.86z"/><text x="236.5" y="193.57" fill="#D9B8FF" font-family="Helvetica" font-size="17" textLength="158">microsoft_resource</text><rect width="113" height="39.789" x="149" y="7" fill="#3D176E" rx="2.5" ry="2.5" style="stroke:#000d19;stroke-width:.5"/><circle cx="164" cy="26.895" r="11" fill="#ADD1B2" style="stroke:#181818;stroke-width:1"/><path d="M166.969 32.535q-.578.297-1.219.438-.64.156-1.344.156-2.5 0-3.828-1.64-1.312-1.657-1.312-4.782t1.312-4.781q1.328-1.656 3.828-1.656.703 0 1.344.156.656.156 1.219.453v2.719q-.625-.578-1.219-.844-.594-.281-1.219-.281-1.344 0-2.031 1.078-.687 1.062-.687 3.156t.687 3.172q.688 1.062 2.031 1.062.625 0 1.219-.265.594-.281 1.219-.86z"/><text x="183" y="32.78" fill="#D9B8FF" font-family="Helvetica" font-size="17" textLength="71">resource</text><path fill="none" d="M131.202 223.287c18.26 30.52 44.518 74.403 62.798 104.963m-72.04-120.41 4.093 18.527 10.297-6.161zm159.458 15.362c-18.64 30.52-45.508 74.488-64.178 105.048m73.56-120.41-14.502 12.234 10.24 6.255zM184.798 62.497C166.538 93.017 140.28 136.9 122 167.46m72.04-120.41-14.39 12.366 10.297 6.161zm32.542 15.362c18.64 30.52 45.508 74.488 64.178 105.048M217.2 47.05l4.262 18.489 10.24-6.255z" style="stroke:#ffaf37;stroke-width:2"/></svg>
